_includes/icons/color-hacker-news.svg

<svg fill="#666" height="50" viewBox="0 0 48 48" width="50" xmlns="http://www.w3.org/2000/svg"><path d="m42 42h-36v-36h36z" fill="#ff6d00"/><g fill="#fff"><path d="m8 8v32h32v-32zm30 30h-28v-28h28z"/><path d="m23 32h2v-6l5.5-10h-2.101562l-4.398438 8.101563-4.398437-8.101563h-2.101563l5.5 10z"/></g></svg>

<svg xmlns="http://www.w3.org/2000/svg" viewBox="0 0 48 48" width="50" height="50" fill="#666"><path d="M 42 42 L 6 42 L 6 6 L 42 6 Z" fill="#ff6d00"/><path d="M 8 8 L 8 40 L 40 40 L 40 8 Z M 38 38 L 10 38 L 10 10 L 38 10 Z" fill="#fff"/><path d="M 23 32 L 25 32 L 25 26 L 30.5 16 L 28.398438 16 L 24 24.101563 L 19.601563 16 L 17.5 16 L 23 26 Z" fill="#fff"/></svg>
